src/icons/lock.svg

<svg width="24" height="24" viewBox="0 0 24 24" fill="none" xmlns="http://www.w3.org/2000/svg">
<path d="M13 16.7324C13.5978 16.3866 14 15.7403 14 15C14 13.8954 13.1046 13 12 13C10.8954 13 10 13.8954 10 15C10 15.7403 10.4022 16.3866 11 16.7324V19H13V16.7324Z" fill="black"/>
<path fill-rule="evenodd" clip-rule="evenodd" d="M18 9V7C18 3.68629 15.3137 1 12 1C8.68629 1 6 3.68629 6 7V9H3V23H21V9H18ZM16 9V7C16 4.79086 14.2091 3 12 3C9.79086 3 8 4.79086 8 7V9H16ZM5 11V21H19V11H5Z" fill="black"/>
</svg>

<svg xmlns="http://www.w3.org/2000/svg" width="24" height="24" fill="none"><path fill="currentColor" d="M13 16.732A2 2 0 0 0 12 13a2 2 0 0 0-1 3.732V19h2z"/><path fill="currentColor" fill-rule="evenodd" d="M18 9V7A6 6 0 0 0 6 7v2H3v14h18V9zm-2 0V7a4 4 0 0 0-8 0v2zM5 11v10h14V11z" clip-rule="evenodd"/></svg>
